medi/img/fb.svg

<svg width="10" height="18" viewBox="0 0 10 18" fill="none" xmlns="http://www.w3.org/2000/svg">
<path d="M6.39703 17.9969V9.80092H9.16203L9.57303 6.59193H6.39703V4.54792C6.39703 3.62192 6.65503 2.98793 7.98403 2.98793H9.66803V0.126925C8.84867 0.0391161 8.02508 -0.00328216 7.20103 -7.49744e-05C4.75703 -7.49744e-05 3.07903 1.49193 3.07903 4.23093V6.58593H0.332031V9.79492H3.08503V17.9969H6.39703Z" fill="#4FBFA5"/>
</svg>

<svg xmlns="http://www.w3.org/2000/svg" width="10" height="18" fill="none"><path fill="#4FBFA5" d="M6.397 17.997V9.8h2.765l.411-3.21H6.397V4.549c0-.926.258-1.56 1.587-1.56h1.684V.127Q8.438-.005 7.201 0C4.757 0 3.079 1.492 3.079 4.23v2.356H.332v3.209h2.753v8.202z"/></svg>
